assets/images/svgs/download.svg

<svg width="24" height="24" viewBox="0 0 24 24" fill="none" xmlns="http://www.w3.org/2000/svg">
<path d="M4.5 24V22.5H18V24H4.5ZM18.5273 12.5273L11.25 19.8633L3.97266 12.5273L5.02734 11.4727L10.5 16.9805V0H12V16.9805L17.4727 11.4727L18.5273 12.5273Z" fill="#333333"/>
</svg>

<svg width="24" height="24" fill="none" xmlns="http://www.w3.org/2000/svg"><path d="M4.5 24v-1.5H18V24H4.5Zm14.027-11.473-7.277 7.336-7.277-7.336 1.054-1.054L10.5 16.98V0H12v16.98l5.473-5.507 1.054 1.054Z" fill="#333"/></svg>
